X:140
M:3/4
L:1/4
K:E
E3/4F// | G2 G3/4A// | (B G) E | (F3/2 G/) A | (A G) E3/4G// | B2 c | B2 G | G2 F | F2 E3/4F// | G2 G3/4A// | (B G) E | (F3/2 G/) A | (A G) E3/4G// | B2 c | B2 G | G2 F | F2 G | A2 B | c2 B | (B G) E | (G F) !sintro!B | (e B) B/e/ | (e c) A | G2 F | E2 !eintro!|]
